assets/Person gesturing no/Medium-Dark/Flat/person_gesturing_no_flat_medium-dark.svg

<svg width="32" height="32" viewBox="0 0 32 32" fill="none" xmlns="http://www.w3.org/2000/svg">
<path d="M24.0874 6.23099C23.698 5.56555 23.099 5.09875 22.4102 4.86039C21.6714 4.61209 21.0324 4.13536 20.6231 3.46992C20.084 2.58598 19.1056 2 17.9974 2C17.5681 2 17.1588 2.08939 16.7894 2.2483C16.2902 2.4668 15.7211 2.4668 15.212 2.2483C14.8426 2.08939 14.4332 2 14.0039 2C12.9057 2 11.9473 2.56612 11.3982 3.43019C10.9689 4.10556 10.33 4.61209 9.57122 4.87032C8.86238 5.10868 8.2434 5.61521 7.85403 6.33031C7.30493 7.36322 7.41475 8.59478 8.04372 9.50851C8.27335 9.8462 8.40313 10.2435 8.40313 10.6407V16.004C8.40313 17.1958 9.16189 18.2585 10.3 18.6558L12.746 19.5V9.93558C12.9357 9.74688 13.1054 9.53831 13.2452 9.29994C13.4648 8.92253 13.5946 8.51532 13.6346 8.10812C13.7544 8.11805 13.8742 8.12798 13.994 8.12798C14.7527 8.12798 15.4516 7.84989 15.9907 7.39302C16.5298 7.84989 17.2287 8.12798 17.9874 8.12798C18.1072 8.12798 18.227 8.11805 18.3468 8.10812C18.3967 8.51532 18.5165 8.92253 18.7362 9.29994C18.876 9.53831 19.0457 9.75681 19.2354 9.93558V19.5L21.6813 18.6558C22.8195 18.2684 23.5782 17.2057 23.5782 16.004V10.6407C23.5782 10.2335 23.698 9.83627 23.9376 9.50851C24.6066 8.57491 24.7064 7.2937 24.0874 6.23099Z" fill="#2D242D"/>
<path d="M9.13278 11L9.11744 10.3647C9.05303 7.6972 11.1978 5.5 13.8661 5.5H15.4922C15.7989 5.5 16.0747 5.68671 16.1886 5.97146L16.2456 6.11417C16.7012 7.25315 17.8044 8 19.0311 8H21.3091C22.1188 8 22.7823 8.64259 22.8083 9.45186L22.858 11H22.8624L22.8571 11.0829C23.8048 11.3478 24.5 12.2177 24.5 13.25C24.5 14.3823 23.6636 15.3193 22.5748 15.4767L22.4728 17.0648C22.1255 19.6063 19.8982 21.5 17.2725 21.5H14.7387C12.113 21.5 9.88579 19.6063 9.53842 17.0648L9.43213 15.4777C8.34001 15.3233 7.5 14.3847 7.5 13.25C7.5 12.2195 8.19272 11.3509 9.13789 11.0843L9.13278 11Z" fill="#966661"/>
<path d="M15.49 12.3675L14.8 14.5875C14.66 15.0375 15 15.4975 15.47 15.4975H16.48C16.96 15.4975 17.29 15.0375 17.15 14.5875L16.46 12.3675C16.33 11.8775 15.64 11.8775 15.49 12.3675Z" fill="#75443E"/>
<path d="M14.9383 12.5051C15.0064 12.7727 14.7761 13 14.5 13H11.5C11.2238 13 10.9936 12.7727 11.0617 12.5051C11.282 11.6399 12.0662 11 13 11C13.9337 11 14.718 11.6399 14.9383 12.5051Z" fill="white"/>
<path d="M20.9383 12.5051C21.0064 12.7727 20.7761 13 20.5 13H17.5C17.2238 13 16.9936 12.7727 17.0617 12.5051C17.282 11.6399 18.0662 11 19 11C19.9337 11 20.718 11.6399 20.9383 12.5051Z" fill="white"/>
<path d="M14.5 12.75C14.5 12.8356 14.4914 12.9192 14.475 13H12.025C12.0086 12.9192 12 12.8356 12 12.75C12 12.0596 12.5596 11.5 13.25 11.5C13.9404 11.5 14.5 12.0596 14.5 12.75Z" fill="#7D4533"/>
<path d="M20 12.75C20 12.8356 19.9914 12.9192 19.975 13H17.525C17.5086 12.9192 17.5 12.8356 17.5 12.75C17.5 12.0596 18.0596 11.5 18.75 11.5C19.4404 11.5 20 12.0596 20 12.75Z" fill="#7D4533"/>
<path d="M14 12.75C14 12.8377 13.985 12.9218 13.9573 13H12.5427C12.515 12.9218 12.5 12.8377 12.5 12.75C12.5 12.3358 12.8358 12 13.25 12C13.6642 12 14 12.3358 14 12.75Z" fill="black"/>
<path d="M19.5 12.75C19.5 12.8377 19.485 12.9218 19.4573 13H18.0427C18.015 12.9218 18 12.8377 18 12.75C18 12.3358 18.3358 12 18.75 12C19.1642 12 19.5 12.3358 19.5 12.75Z" fill="black"/>
<path d="M16 19C16.8284 19 17.5 18.3284 17.5 17.5C17.5 16.6716 16.8284 16 16 16C15.1716 16 14.5 16.6716 14.5 17.5C14.5 18.3284 15.1716 19 16 19Z" fill="#990838"/>
<path d="M11.28 9.91C11.32 10.07 11.46 10.18 11.62 10.18C11.65 10.18 11.68 10.18 11.72 10.17C11.72 10.17 12.78 9.9 13.84 9.66C14.03 9.62 14.14 9.43 14.1 9.24C14.06 9.05 13.87 8.93 13.68 8.98C12.61 9.22 11.54 9.49 11.54 9.49C11.35 9.54 11.23 9.73 11.28 9.91Z" fill="#372128"/>
<path d="M20.0401 10.17C20.0701 10.18 20.1001 10.18 20.1301 10.18C20.2901 10.18 20.4301 10.08 20.4801 9.92C20.5201 9.73 20.4101 9.54 20.2201 9.49C20.2201 9.49 19.1501 9.22 18.0801 8.98C17.8901 8.93 17.7001 9.05 17.6601 9.24C17.6101 9.43 17.7301 9.62 17.9201 9.66C18.9801 9.9 20.0401 10.17 20.0401 10.17Z" fill="#372128"/>
<path d="M13 12.25C13 12.3881 12.8881 12.5 12.75 12.5C12.6119 12.5 12.5 12.3881 12.5 12.25C12.5 12.1119 12.6119 12 12.75 12C12.8881 12 13 12.1119 13 12.25Z" fill="white"/>
<path d="M18.5 12.25C18.5 12.3881 18.3881 12.5 18.25 12.5C18.1119 12.5 18 12.3881 18 12.25C18 12.1119 18.1119 12 18.25 12C18.3881 12 18.5 12.1119 18.5 12.25Z" fill="white"/>
<path d="M25.5 30H6.5C5.67 30 5 29.33 5 28.5V24.17C5 21.87 6.87 20 9.17 20H22.83C25.13 20 27 21.87 27 24.17V28.5C27 29.33 26.33 30 25.5 30Z" fill="#F24827"/>
<path d="M6.81006 20.57L9.08996 21.63L11.2 17.11L8.97 16.06L6.81006 20.57Z" fill="#FF8101"/>
<path d="M11.5598 16.0984L26.9669 23.2758C28.728 24.1025 29.4928 26.1993 28.6676 27.9634C27.8424 29.7275 25.7492 30.4936 23.9881 29.667L8.58104 22.4795C8.07787 22.2476 7.85648 21.6428 8.098 21.1387L10.2214 16.5722C10.4528 16.0782 11.0566 15.8564 11.5598 16.0984Z" fill="#FF6723"/>
<path d="M25.19 20.57L22.9099 21.63L20.7999 17.11L23.06 16.04L25.19 20.57Z" fill="#FF6723"/>
<path d="M20.4402 16.0985L5.03313 23.271C3.27203 24.0982 2.50721 26.1965 3.33241 27.9619C4.15761 29.7273 6.2508 30.494 8.01189 29.6668L23.419 22.4841C23.9221 22.2521 24.1435 21.6468 23.902 21.1424L21.7786 16.5726C21.5472 16.0783 20.9434 15.8563 20.4402 16.0985Z" fill="#FF8101"/>
<path d="M25.83 20.23L28.9 18.44C29.16 18.29 29.32 18.01 29.32 17.7C29.32 17.14 28.79 16.73 28.25 16.87L26.05 17.44L25.83 20.23Z" fill="#8B5C56"/>
<path d="M6.17004 20.23L3.10004 18.43C2.83004 18.28 2.67004 18 2.67004 17.7C2.67004 17.14 3.20004 16.73 3.74004 16.87L5.94004 17.44L6.17004 20.23Z" fill="#8B5C56"/>
<path d="M9 16.07L6.88 20.61L6.16 20.23C5.42 19.84 4.89 19.15 4.72 18.33L4.43 16.94C4.35 16.52 4.14 16.14 3.84 15.84L2.33 14.54C2.12 14.36 2 14.1 2 13.83C2 13.12 2.76 12.67 3.38 13.01L9 16.07Z" fill="#966661"/>
<path d="M23 16.07L25.12 20.61L25.84 20.23C26.58 19.84 27.11 19.15 27.28 18.33L27.57 16.94C27.65 16.52 27.86 16.14 28.16 15.84L29.67 14.54C29.88 14.36 30 14.1 30 13.83C30 13.12 29.24 12.67 28.62 13.01L23 16.07Z" fill="#966661"/>
</svg>

<svg xmlns="http://www.w3.org/2000/svg" width="32" height="32" fill="none"><path fill="#2D242D" d="M24.087 6.231a3.104 3.104 0 0 0-1.677-1.37c-.739-.249-1.378-.726-1.787-1.391a3.073 3.073 0 0 0-3.834-1.222 1.98 1.98 0 0 1-1.577 0 3.073 3.073 0 0 0-3.814 1.182 3.493 3.493 0 0 1-1.827 1.44 3.076 3.076 0 0 0-1.717 1.46 3.078 3.078 0 0 0 .19 3.179c.23.337.36.734.36 1.132v5.363c0 1.192.758 2.255 1.896 2.652l2.446.844V9.936a2.945 2.945 0 0 0 .889-1.827c.12.009.24.019.359.019.759 0 1.458-.278 1.997-.735.539.457 1.238.735 1.996.735.12 0 .24-.01.36-.02.05.407.17.815.39 1.192.139.238.309.457.498.636V19.5l2.446-.844a2.794 2.794 0 0 0 1.897-2.652v-5.363c0-.408.12-.805.36-1.132a3.018 3.018 0 0 0 .15-3.278Z"/><path fill="#966661" d="m9.133 11-.016-.635a4.75 4.75 0 0 1 4.75-4.865h1.625a.75.75 0 0 1 .697.471l.057.143A3 3 0 0 0 19.03 8h2.278a1.5 1.5 0 0 1 1.5 1.452L22.857 11h.004l-.005.083a2.25 2.25 0 0 1-.282 4.394l-.102 1.588c-.348 2.541-2.575 4.435-5.2 4.435h-2.534c-2.626 0-4.853-1.894-5.2-4.435l-.107-1.587a2.25 2.25 0 0 1-.294-4.394L9.133 11Z"/><path fill="#75443E" d="m15.49 12.367-.69 2.22c-.14.45.2.91.67.91h1.01a.7.7 0 0 0 .67-.91l-.69-2.22c-.13-.49-.82-.49-.97 0Z"/><path fill="#fff" d="M14.938 12.505c.068.268-.162.495-.438.495h-3c-.276 0-.506-.227-.438-.495a2 2 0 0 1 3.876 0ZM20.938 12.505c.068.268-.162.495-.438.495h-3c-.276 0-.506-.227-.438-.495a2 2 0 0 1 3.876 0Z"/><path fill="#7D4533" d="M14.5 12.75c0 .086-.009.17-.025.25h-2.45a1.25 1.25 0 1 1 2.475-.25ZM20 12.75c0 .086-.009.17-.025.25h-2.45A1.25 1.25 0 1 1 20 12.75Z"/><path fill="#000" d="M14 12.75a.747.747 0 0 1-.043.25h-1.414A.75.75 0 1 1 14 12.75ZM19.5 12.75a.747.747 0 0 1-.043.25h-1.414a.75.75 0 1 1 1.457-.25Z"/><path fill="#990838" d="M16 19a1.5 1.5 0 1 0 0-3 1.5 1.5 0 0 0 0 3Z"/><path fill="#372128" d="M11.28 9.91c.04.16.18.27.34.27.03 0 .06 0 .1-.01 0 0 1.06-.27 2.12-.51.19-.04.3-.23.26-.42a.34.34 0 0 0-.42-.26c-1.07.24-2.14.51-2.14.51-.19.05-.31.24-.26.42ZM20.04 10.17c.03.01.06.01.09.01.16 0 .3-.1.35-.26a.363.363 0 0 0-.26-.43s-1.07-.27-2.14-.51a.34.34 0 0 0-.42.26c-.05.19.07.38.26.42 1.06.24 2.12.51 2.12.51Z"/><path fill="#fff" d="M13 12.25a.25.25 0 1 1-.5 0 .25.25 0 0 1 .5 0ZM18.5 12.25a.25.25 0 1 1-.5 0 .25.25 0 0 1 .5 0Z"/><path fill="#F24827" d="M25.5 30h-19c-.83 0-1.5-.67-1.5-1.5v-4.33C5 21.87 6.87 20 9.17 20h13.66c2.3 0 4.17 1.87 4.17 4.17v4.33c0 .83-.67 1.5-1.5 1.5Z"/><path fill="#FF8101" d="m6.81 20.57 2.28 1.06 2.11-4.52-2.23-1.05-2.16 4.51Z"/><path fill="#FF6723" d="m11.56 16.098 15.407 7.178a3.529 3.529 0 0 1 1.7 4.687 3.518 3.518 0 0 1-4.679 1.704L8.581 22.479a1.003 1.003 0 0 1-.483-1.34l2.123-4.567a1.004 1.004 0 0 1 1.339-.474Z"/><path fill="#FF6723" d="m25.19 20.57-2.28 1.06-2.11-4.52 2.26-1.07 2.13 4.53Z"/><path fill="#FF8101" d="M20.44 16.099 5.033 23.27a3.532 3.532 0 0 0-1.7 4.69 3.516 3.516 0 0 0 4.679 1.706l15.407-7.183c.503-.232.724-.837.483-1.342l-2.123-4.57a1.003 1.003 0 0 0-1.339-.473Z"/><path fill="#8B5C56" d="m25.83 20.23 3.07-1.79c.26-.15.42-.43.42-.74 0-.56-.53-.97-1.07-.83l-2.2.57-.22 2.79ZM6.17 20.23l-3.07-1.8a.833.833 0 0 1-.43-.73c0-.56.53-.97 1.07-.83l2.2.57.23 2.79Z"/><path fill="#966661" d="m9 16.07-2.12 4.54-.72-.38a2.787 2.787 0 0 1-1.44-1.9l-.29-1.39c-.08-.42-.29-.8-.59-1.1l-1.51-1.3a.933.933 0 0 1 1.05-1.53L9 16.07ZM23 16.07l2.12 4.54.72-.38c.74-.39 1.27-1.08 1.44-1.9l.29-1.39c.08-.42.29-.8.59-1.1l1.51-1.3a.933.933 0 0 0-1.05-1.53L23 16.07Z"/></svg>
